X:1
T:Title
%%score { 1 | ( 2 3 ) }
L:1/8
M:4/4
K:Ab
V:1 treble nm="Grand Piano"
V:2 bass 
V:3 bass 
V:1
 z4 z2[Q:1/4=106] [CA]B | c2 c2 cBAB | A6 Bc | d2 d2 d2 c2 | B6 cd | e2 e2 e2 d2 | c2 c2 c2 [Fd]B | %7
 A2 A2 c2 B2 | [CA]6 GA | B2 B2 B3 c | A2 A2 A2 Bc | d2 dd A2 [Ec][Ec] | B6 AB | c2 c2 cBAB | %14
 A6 Bc | d2 d2 dcBA | B6 cd | e2 e2 e2 d2 | c2 [Ec]2 [Ec]2 [Fd]c | AAGA c2 B2 | [CA]6 z2 |] %21
V:2
 z4 z2 z D | [A,E]2 [A,E]2 [E,A,E][E,G,D][E,A,C][E,G,D] | [A,C]6 [E,E]-[E,A,E] | %3
 [E,B,E]2 [E,B,E]2 [E,B,E]2 [E,A,E]2 | [E,G,E]6 E-[B,E] | [A,CE]2 [A,CE]2 [A,CE]2 [E,B,E]2 | %6
 [A,E]2 [A,E]2 [A,E]2 z D | [E,A,C]2 [E,C]2 [E,E]2 [E,G,D]2 | [A,,A,]6 [E,B,E]2 | %9
 [E,G,E]2 [E,G,E]2 [E,G,E]3 [E,A,E] | [A,C]2 [A,CE]2 [A,CE]2 DC | %11
 [E,B,E]2 [E,B,E][E,B,E] [E,A,E]2 [A,,A,][C,A,] | [E,G,E]6 CD | %13
 [A,E]2 [A,E]2 [E,A,E][E,DE][E,CE][E,DE] | [A,CE]6 [E,E]-[E,A,E] | %15
 [E,B,E]2 [E,B,E]2 [E,B,E][E,A,E][E,G,E][E,G,E] | [E,G,E]6 E-[B,E] | %17
 [A,CE]2 [A,CE]2 [A,CE]2 [E,B,E]2 | [A,E]2 [A,,A,]2 [A,,A,]2 z D | %19
 [E,A,C][E,A,C][E,B,E][E,CE] [E,A,E]2 [E,G,D]2 | [A,,A,]6 z2 |] %21
V:3
 z4 z2 A,2 | x8 | z4 z2 .G,2 | x8 | z4 z2 .A,2 | x8 | z4 z2 [D,A,]2 | x8 | x8 | x8 | z4 z2 [E,E]2 | %11
 x8 | z4 z2 A,2 | x8 | z4 z2 .G,2 | x8 | z4 z2 .A,2 | x8 | z4 z2 [D,A,]2 | x8 | x8 |] %21

